src/1-subject/reach.svg

<svg width="1300" height="1000" viewBox="0 0 1300 1000" fill="none" xmlns="http://www.w3.org/2000/svg"><path d="M383.074 469.773c0-1.66 5.891-57.046 23.387-93.03 15.021-29.133 40.482-34.834 77.038-36.927 35.252-2.018 87.157-3.016 87.157-3.016l48.911-84.88v-34.018a14.999 14.999 0 0 1 11.594-14.608l4.98-1.161a4.999 4.999 0 0 1 6.002 3.723l10.648 45.222a2.998 2.998 0 0 1-.11 1.738l-47.608 127.281a5.003 5.003 0 0 1-3.748 3.16L543 394.362l6 93.932 2 29.979 4 55.96 9.172 144.025-1.497 155.779 15.55 6.389a20 20 0 0 1 12.399 18.499V900h-93.329l1.497-17.974a9.955 9.955 0 0 1-4.431-8.395l1.436-127.413-9.482-124.823-8.984 124.823v127.82a9.985 9.985 0 0 1-3.993 7.988L474.836 900H383c0-7.622 4.394-14.56 11.284-17.818l16.17-7.646-1.997-156.278 6.488-118.332-5.858 22.954a.915.915 0 0 1-.64.655c-12.034 3.371-23.839-6.026-23.251-18.51l1.517-32.191s-3.639-59.285-3.639-103.061Z" fill="#fff"/><path d="M389.07 472.779s5.44-56.643 21.98-91.889c14.201-28.537 33.819-32.689 72.96-35.469 42.49-3.019 89.99-3.019 89.99-3.019l52-90.934-1.448-32.195c-.301-6.687 5.04-12.273 11.734-12.273.704 0 1.31.501 1.442 1.193l8.112 42.437a3.01 3.01 0 0 1-.145 1.635l-47.096 123.059a2.999 2.999 0 0 1-2.246 1.876L537 388.39l6 99.407 3 30.478 3 55.816 9.5 144.049-1.5 159.891 21.214 9.105a10 10 0 0 1 6.054 9.022l.064 3.842H503.5l2.09-21.994a5.002 5.002 0 0 1-5.032-5.05l1.197-127.724-12.534-148.16a2.857 2.857 0 0 0-5.694.009L471.49 745.246l-.242 128.48a4.317 4.317 0 0 1-4.348 4.31L468.891 900H389c0-5.188 2.967-9.919 7.637-12.178l20.183-9.766-2.16-159.905L422 573.735l2.5-55.46 3-29.978 5.395-68.614a1.228 1.228 0 0 0-2.442-.254l-6.463 49.972-9.49 104.327-10.216 43.62a.63.63 0 0 1-.613.486c-7.175 0-12.898-5.99-12.571-13.158l1.41-30.948-3.45-100.949h.01Z" fill="#000"/><path d="M473.324 340c3.926 1.471 11.257 1.995 13.176 2 0 0 8.646-.072 13.682-2 5.676-2.172 8.837-4.293 12.669-8.96 2.619-3.188 4.662-8.697 5.57-11.42.358-1.076.606-2.181.795-3.3l4.277-25.32s.516-3.649.507-6c-.02-5.591-.777-8.874-3.041-14-2.325-5.265-4.358-8.083-8.614-12-4.537-4.176-7.807-6-13.683-7.968-4.561-1.528-7.345-1.993-12.162-2.032-5.17.175-7.095.5-12.029 2.032-4.938 1.649-9.979 4.57-13.816 7.968-3.836 3.398-6.521 7.42-8.614 12-2.094 4.58-3.039 9.002-3.041 14 .001 1.885.208 4.137.507 6l5.084 24.993a24.33 24.33 0 0 0 1.005 3.605c1.072 2.894 3.346 8.603 5.566 11.402 3.047 3.841 7.466 7.241 12.162 9Z" fill="#fff"/><path d="M475.432 334.258c3.298 1.281 9.456 1.738 11.068 1.742 0 0 7.263-.063 11.493-1.742 4.767-1.892 7.423-3.739 10.642-7.804 2.15-2.714 3.839-7.36 4.625-9.782.339-1.045.572-2.118.748-3.202l3.566-21.889s.433-3.178.426-5.226c-.017-4.87-.652-7.729-2.554-12.194-1.953-4.585-3.662-7.039-7.237-10.451-3.811-3.637-6.558-5.226-11.493-6.94-3.832-1.331-6.17-1.736-10.216-1.77-4.342.152-5.959.435-10.104 1.77-4.148 1.436-8.383 3.98-11.605 6.94-3.223 2.959-5.478 6.462-7.237 10.451-1.759 3.99-2.552 7.841-2.554 12.194 0 1.641.175 3.603.426 5.226l4.234 21.584c.234 1.19.535 2.363.946 3.504.924 2.57 2.789 7.37 4.61 9.75 2.56 3.346 6.272 6.307 10.216 7.839Z" fill="#000"/></svg>

<svg width="1300" height="1000" viewBox="0 0 1300 1000" fill="none" xmlns="http://www.w3.org/2000/svg">
<path d="M383.074 469.773C383.074 468.113 388.965 412.727 406.461 376.743C421.482 347.61 446.943 341.909 483.499 339.816C518.751 337.798 572.069 321.569 572.069 321.569L613.067 233.92L617.693 198.512C618.516 192.21 623.222 187.11 629.438 185.785L636.919 184.19C639.875 183.56 642.71 185.676 642.946 188.689L646.456 233.403C646.485 233.774 646.445 234.146 646.338 234.502L608.655 359.82C608.239 361.205 607.243 362.342 605.926 362.937L543 391.362L549 488.295L551 518.273L555 574.233L564.172 718.258L562.675 874.037L578.225 880.426C585.726 883.508 590.624 890.815 590.624 898.925V900H497.295L498.792 882.025V882.025C495.99 880.157 494.323 876.998 494.361 873.631L495.797 746.218L486.315 621.396L477.331 746.218V874.038C477.331 877.18 475.852 880.139 473.338 882.025V882.025L474.836 900H383V900C383 892.378 387.394 885.44 394.284 882.182L410.454 874.536L408.457 718.258L414.945 599.926L409.087 622.88C409.006 623.197 408.762 623.447 408.447 623.536V623.536C396.413 626.907 384.608 617.509 385.196 605.026L386.713 572.834C386.713 572.834 383.074 513.549 383.074 469.773Z" fill="white"/>
<path d="M389.07 472.778C389.07 472.778 394.51 416.136 411.05 380.889C425.251 352.353 444.869 348.201 484.01 345.42C526.5 342.402 577.5 326.513 577.5 326.513L620 233.499L622.929 200.938C623.535 194.196 629.186 189.031 635.955 189.031V189.031C636.822 189.031 637.538 189.708 637.587 190.574L639.97 232.96C639.99 233.317 639.946 233.674 639.841 234.015L601.911 356.669C601.651 357.513 601.031 358.199 600.218 358.544L537 385.389L543 487.797L546 518.275L549 574.09L558.5 718.139L557 878.03L578.214 887.135C581.832 888.688 584.202 892.22 584.268 896.157L584.332 899.999H503.5L505.59 878.005V878.005C502.797 878.022 500.531 875.748 500.558 872.955L501.755 745.231L489.221 597.071C489.096 595.592 487.859 594.455 486.374 594.455V594.455C484.886 594.455 483.647 595.597 483.527 597.081L471.49 745.245L471.248 873.725C471.244 876.119 469.293 878.052 466.9 878.035V878.035L468.891 899.999H389V899.999C389 894.811 391.967 890.08 396.637 887.821L416.82 878.055L414.66 718.151L422 573.735L424.5 518.275L427.5 488.297L432.895 419.683C432.951 418.965 432.381 418.353 431.66 418.359V418.359C431.047 418.364 430.531 418.821 430.453 419.429L423.99 469.401L414.5 573.728L404.284 617.348C404.217 617.633 403.963 617.834 403.671 617.834V617.834C396.496 617.834 390.773 611.844 391.1 604.676L392.51 573.728L389.06 472.778H389.07Z" fill="black"/>
<path d="M473.324 340C477.25 341.471 484.581 341.995 486.5 342C486.5 342 495.146 341.928 500.182 340C505.858 337.828 509.019 335.707 512.851 331.04C515.47 327.852 517.513 322.343 518.421 319.62C518.779 318.544 519.027 317.439 519.216 316.32L523.493 291C523.493 291 524.009 287.351 524 285C523.98 279.409 523.223 276.126 520.959 271C518.634 265.735 516.601 262.917 512.345 259C507.808 254.824 504.538 253 498.662 251.032C494.101 249.504 491.317 249.039 486.5 249C481.33 249.175 479.405 249.5 474.471 251.032C469.533 252.681 464.492 255.602 460.655 259C456.819 262.398 454.134 266.42 452.041 271C449.947 275.58 449.002 280.002 449 285C449.001 286.885 449.208 289.137 449.507 291L454.591 315.993C454.84 317.218 455.162 318.425 455.596 319.598C456.668 322.492 458.942 328.201 461.162 331C464.209 334.841 468.628 338.241 473.324 340Z" fill="white"/>
<path d="M475.432 334.258C478.73 335.539 484.888 335.996 486.5 336C486.5 336 493.763 335.937 497.993 334.258C502.76 332.366 505.416 330.519 508.635 326.454C510.785 323.74 512.474 319.094 513.26 316.672C513.599 315.627 513.832 314.554 514.008 313.47L517.574 291.581C517.574 291.581 518.007 288.403 518 286.355C517.983 281.485 517.348 278.626 515.446 274.161C513.493 269.576 511.784 267.122 508.209 263.71C504.398 260.073 501.651 258.484 496.716 256.77C492.884 255.439 490.546 255.034 486.5 255C482.158 255.152 480.541 255.435 476.396 256.77C472.248 258.206 468.013 260.75 464.791 263.71C461.568 266.669 459.313 270.172 457.554 274.161C455.795 278.151 455.002 282.002 455 286.355C455 287.996 455.175 289.958 455.426 291.581L459.66 313.165C459.894 314.355 460.195 315.528 460.606 316.669C461.53 319.239 463.395 324.039 465.216 326.419C467.776 329.765 471.488 332.726 475.432 334.258Z" fill="black"/>
</svg>
